X: 32562
T: Planxty Hewlett
R: waltz
M: 3/4
K: Dmajor
|:AA|"D"D2 D2 FG|"A"AB c2 A2|"D"d2 f2 fg|"D"fe d3B|
"D"A2 F2 F2|"G"G3A BG|"D"AF D2 D2|"D"D2 D2:|
AB|"D"A2 D2 AB|"D"A2 D2 AB|"D"A2 d2 de|"D"dc BA GF|
"G"G2 G2 GA|"G"G2 G2 GA|"G"G2 GA BG|"D"AF D2 D2|
"D"FE F2 G2|"A"AB c2 A2|"D"fe fg ag|"D"fe d3B|
"D"A2 F2 F2|"G"G3A BG|"D"AF D2 D2|"D"D4 z2||

